src/info-circle-fill.svg

<svg width="24" height="24" viewBox="0 0 24 24" xmlns="http://www.w3.org/2000/svg">
<path fill-rule="evenodd" clip-rule="evenodd" d="M12 2C17.5143 2 22 6.48571 22 12C22 17.5143 17.5143 22 12 22C6.48571 22 2 17.5429 2 12C2 6.45714 6.48571 2 12 2ZM13.4286 12.0143C13.4 11.6571 13.2714 11.3286 12.9857 11.0286C12.7 10.7571 12.3857 10.6 12 10.5857H10.5714C10.1857 10.6143 9.88571 10.7714 9.58571 11.0286C9.3 11.3143 9.15714 11.6571 9.14286 12.0143H10.5714V16.3C10.6 16.6857 10.7286 17.0143 11.0143 17.2857C11.3 17.5714 11.6143 17.7286 12 17.7286H13.4286C13.8143 17.7286 14.1143 17.5714 14.4143 17.2857C14.7 17.0143 14.8429 16.6857 14.8571 16.3H13.4286V12V12.0143ZM11 7.72857C10.7329 7.46571 10.5886 7.10286 10.6 6.72857C10.6 6.32857 10.7286 5.98571 11 5.72857C11.2714 5.47143 11.6 5.32857 12 5.32857C12.4 5.32857 12.7429 5.45714 13 5.72857C13.2571 6 13.4 6.32857 13.4 6.72857C13.4 7.12857 13.2714 7.47143 13 7.72857C12.7357 7.99714 12.3771 8.15143 12 8.15714C11.6 8.15714 11.2571 8 11 7.72857Z" fill="currentColor"/>
</svg>

<svg width="24" height="24" viewBox="0 0 24 24" xmlns="http://www.w3.org/2000/svg" xmlns:xlink="http://www.w3.org/1999/xlink">
  <g fill-rule="evenodd">
    <path d="M12 2c5.514 0 10 4.486 10 10s-4.486 10-10 10S2 17.543 2 12 6.486 2 12 2zm1.429 10.014a1.555 1.555 0 0 0-.443-.985c-.286-.272-.6-.429-.986-.443h-1.429c-.385.028-.685.185-.985.443a1.457 1.457 0 0 0-.443.985h1.428V16.3c.029.386.158.714.443.986.286.285.6.443.986.443h1.429c.385 0 .685-.158.985-.443.286-.272.429-.6.443-.986H13.43V12v.014zM11 7.73a1.345 1.345 0 0 1-.4-1c0-.4.129-.743.4-1 .271-.258.6-.4 1-.4s.743.128 1 .4c.257.271.4.6.4 1s-.129.742-.4 1a1.433 1.433 0 0 1-1 .428c-.4 0-.743-.157-1-.428z" fill="currentColor"/>
  </g>
</svg>
